client/src/assets/dashboardIconColored.svg

<svg width="20" height="20" viewBox="0 0 20 20" fill="none" xmlns="http://www.w3.org/2000/svg">
<g clip-path="url(#clip0_4555_2703)">
<path d="M15.8333 4.16667V5.83333H12.5V4.16667H15.8333ZM7.5 4.16667V9.16667H4.16667V4.16667H7.5ZM15.8333 10.8333V15.8333H12.5V10.8333H15.8333ZM7.5 14.1667V15.8333H4.16667V14.1667H7.5ZM17.5 2.5H10.8333V7.5H17.5V2.5ZM9.16667 2.5H2.5V10.8333H9.16667V2.5ZM17.5 9.16667H10.8333V17.5H17.5V9.16667ZM9.16667 12.5H2.5V17.5H9.16667V12.5Z" fill="#2563EB"/>
</g>
<defs>
<clipPath id="clip0_4555_2703">
<rect width="20" height="20" fill="white"/>
</clipPath>
</defs>
</svg>

<svg version="1.2" xmlns="http://www.w3.org/2000/svg" viewBox="0 0 20 20" width="20" height="20">
	<title>dashboardIconColored</title>
	<defs>
		<clipPath clipPathUnits="userSpaceOnUse" id="cp1">
			<path d="m0 0h20v20h-20z"/>
		</clipPath>
	</defs>
	<style>
		.s0 { fill: #ec7124 } 
	</style>
	<g id="Clip-Path" clip-path="url(#cp1)">
		<g>
			<path class="s0" d="m17.5 2.5h-6.7v5h6.7zm-8.3 0h-6.7v8.3h6.7zm8.3 6.7h-6.7v8.3h6.7zm-8.3 3.4h-6.7v5h6.7zm6.6-8.4v1.7h-3.3v-1.7zm-8.3 0v5h-3.4v-5zm8.4 6.7v5h-3.4v-5zm-8.3 3.3v1.7h-3.3v-1.7z"/>
		</g>
	</g>
</svg>
